**harm	**harte	**timestamp	**phrase	**leadinstrument	**kern
*M4/4	*M4/4	*	*	*	*
*E-:	*E-:	*	*	*	*E-:
1r;	N	0	.	r	1r;
1r;	N	0.255	.	r	1r;
=1	=1	=1	=1	=1	=1
*>A_intro	*>A_intro	*>A_intro	*>A_intro	*>A_intro	*>A_intro
1r	N	6.872	newline	r	1r
=2	=2	=2	=2	=2	=2
1r	N	8.403	.	r	1r
=3	=3	=3	=3	=3	=3
1r	N	9.934	.	r	1r
=4	=4	=4	=4	=4	=4
1r	N	11.465	.	r	1r
=5	=5	=5	=5	=5	=5
1r	N	12.996	newline	r	1r
=6	=6	=6	=6	=6	=6
1r	N	14.471	.	r	1r
=7	=7	=7	=7	=7	=7
1r	N	15.946	.	r	1r
=8	=8	=8	=8	=8	=8
1r	N	17.422	.	r	1r
=9	=9	=9	=9	=9	=9
*>B_solo	*>B_solo	*>B_solo	*>B_solo	*>B_solo	*>B_solo
1I	E-:maj	18.897	newline	saxophone	1E- 1g 1b-
=10	=10	=10	=10	=10	=10
1I	E-:maj	20.368	.	saxophone	1E- 1g 1b-
=11	=11	=11	=11	=11	=11
1vi	C:min	21.84	.	saxophone	1C 1e- 1g
=12	=12	=12	=12	=12	=12
1vi	C:min	23.311	.	saxophone	1C 1e- 1g
=13	=13	=13	=13	=13	=13
1IV	A-:maj	24.782	newline	saxophone	1A- 1cc 1ee-
=14	=14	=14	=14	=14	=14
1IV	A-:maj	26.248	.	saxophone	1A- 1cc 1ee-
=15	=15	=15	=15	=15	=15
1V	B-:maj	27.714	.	saxophone	1B- 1dd 1ff
=16	=16	=16	=16	=16	=16
1V	B-:maj	29.18	.	saxophone	1B- 1dd 1ff
=17	=17	=17	=17	=17	=17
*>B_verse	*>B_verse	*>B_verse	*>B_verse	*>B_verse	*>B_verse
1I	E-:maj	30.646	newline	voice	1E- 1g 1b-
=18	=18	=18	=18	=18	=18
1I	E-:maj	32.148	.	voice	1E- 1g 1b-
=19	=19	=19	=19	=19	=19
1vi	C:min	33.651	.	voice	1C 1e- 1g
=20	=20	=20	=20	=20	=20
1vi	C:min	35.153	.	voice	1C 1e- 1g
=21	=21	=21	=21	=21	=21
1IV	A-:maj	36.655	newline	voice	1A- 1cc 1ee-
=22	=22	=22	=22	=22	=22
1IV	A-:maj	38.111	.	voice	1A- 1cc 1ee-
=23	=23	=23	=23	=23	=23
1V	B-:maj	39.566	.	voice	1B- 1dd 1ff
=24	=24	=24	=24	=24	=24
1V	B-:maj	41.022	.	voice	1B- 1dd 1ff
=25	=25	=25	=25	=25	=25
*>B_verse	*>B_verse	*>B_verse	*>B_verse	*>B_verse	*>B_verse
1I	E-:maj	42.478	newline	voice	1E- 1g 1b-
=26	=26	=26	=26	=26	=26
1I	E-:maj	43.986	.	voice	1E- 1g 1b-
=27	=27	=27	=27	=27	=27
1vi	C:min	45.494	.	voice	1C 1e- 1g
=28	=28	=28	=28	=28	=28
1vi	C:min	47.002	.	voice	1C 1e- 1g
=29	=29	=29	=29	=29	=29
1IV	A-:maj	48.51	newline	voice	1A- 1cc 1ee-
=30	=30	=30	=30	=30	=30
1IV	A-:maj	49.979	.	voice	1A- 1cc 1ee-
=31	=31	=31	=31	=31	=31
1V	B-:maj	51.449	.	voice	1B- 1dd 1ff
=32	=32	=32	=32	=32	=32
1V	B-:maj	52.918	.	voice	1B- 1dd 1ff
=33	=33	=33	=33	=33	=33
*>C_bridge	*>C_bridge	*>C_bridge	*>C_bridge	*>C_bridge	*>C_bridge
1IV	A-:maj	54.388	newline	voice	1A- 1cc 1ee-
=34	=34	=34	=34	=34	=34
1IV	A-:maj	55.874	.	voice	1A- 1cc 1ee-
=35	=35	=35	=35	=35	=35
1I	E-:maj	57.36	.	voice	1E- 1g 1b-
=36	=36	=36	=36	=36	=36
1I	E-:maj	58.846	.	voice	1E- 1g 1b-
=37	=37	=37	=37	=37	=37
1IV	A-:maj	60.333	newline	voice	1A- 1cc 1ee-
=38	=38	=38	=38	=38	=38
1IV	A-:maj	61.792	.	voice	1A- 1cc 1ee-
=39	=39	=39	=39	=39	=39
1V7	B-:7	63.251	.	voice	1B- 1dd 1ff 1aa-
=40	=40	=40	=40	=40	=40
1V7	B-:7	64.71	.	voice	1B- 1dd 1ff 1aa-
=41	=41	=41	=41	=41	=41
*>B_verse	*>B_verse	*>B_verse	*>B_verse	*>B_verse	*>B_verse
1I	E-:maj	66.17	newline	voice	1E- 1g 1b-
=42	=42	=42	=42	=42	=42
1I	E-:maj	67.665	.	voice	1E- 1g 1b-
=43	=43	=43	=43	=43	=43
1vi	C:min	69.161	.	voice	1C 1e- 1g
=44	=44	=44	=44	=44	=44
1vi	C:min	70.656	.	voice	1C 1e- 1g
=45	=45	=45	=45	=45	=45
1IV	A-:maj	72.152	newline	voice	1A- 1cc 1ee-
=46	=46	=46	=46	=46	=46
1IV	A-:maj	73.631	.	voice	1A- 1cc 1ee-
=47	=47	=47	=47	=47	=47
1V	B-:maj	75.111	.	voice	1B- 1dd 1ff
=48	=48	=48	=48	=48	=48
1I	E-:maj	76.59	.	voice	1E- 1g 1b-
=49	=49	=49	=49	=49	=49
*>B_solo	*>B_solo	*>B_solo	*>B_solo	*>B_solo	*>B_solo
1I	E-:maj	78.069	newline	saxophone	1E- 1g 1b-
=50	=50	=50	=50	=50	=50
1I	E-:maj	79.589	.	saxophone	1E- 1g 1b-
=51	=51	=51	=51	=51	=51
1vi	C:min	81.108	.	saxophone	1C 1e- 1g
=52	=52	=52	=52	=52	=52
1vi	C:min	82.628	.	saxophone	1C 1e- 1g
=53	=53	=53	=53	=53	=53
1IV	A-:maj	84.147	newline	saxophone	1A- 1cc 1ee-
=54	=54	=54	=54	=54	=54
1IV	A-:maj	85.643	.	saxophone	1A- 1cc 1ee-
=55	=55	=55	=55	=55	=55
1V	B-:maj	87.138	.	saxophone	1B- 1dd 1ff
=56	=56	=56	=56	=56	=56
1V	B-:maj	88.634	.	saxophone	1B- 1dd 1ff
=57	=57	=57	=57	=57	=57
*>B_solo	*>B_solo	*>B_solo	*>B_solo	*>B_solo	*>B_solo
1I	E-:maj	90.129	newline	saxophone	1E- 1g 1b-
=58	=58	=58	=58	=58	=58
1I	E-:maj	91.623	.	saxophone	1E- 1g 1b-
=59	=59	=59	=59	=59	=59
1vi	C:min	93.117	.	saxophone	1C 1e- 1g
=60	=60	=60	=60	=60	=60
1vi	C:min	94.611	.	saxophone	1C 1e- 1g
=61	=61	=61	=61	=61	=61
1IV	A-:maj	96.105	newline	saxophone	1A- 1cc 1ee-
=62	=62	=62	=62	=62	=62
1IV	A-:maj	97.621	.	saxophone	1A- 1cc 1ee-
=63	=63	=63	=63	=63	=63
1V	B-:maj	99.136	.	saxophone	1B- 1dd 1ff
=64	=64	=64	=64	=64	=64
1V	B-:maj	100.651	.	saxophone	1B- 1dd 1ff
=65	=65	=65	=65	=65	=65
*>C_bridge	*>C_bridge	*>C_bridge	*>C_bridge	*>C_bridge	*>C_bridge
1IV	A-:maj	102.166	newline	voice	1A- 1cc 1ee-
=66	=66	=66	=66	=66	=66
1IV	A-:maj	103.679	.	voice	1A- 1cc 1ee-
=67	=67	=67	=67	=67	=67
1I	E-:maj	105.192	.	voice	1E- 1g 1b-
=68	=68	=68	=68	=68	=68
1I	E-:maj	106.705	.	voice	1E- 1g 1b-
=69	=69	=69	=69	=69	=69
1IV	A-:maj	108.218	newline	voice	1A- 1cc 1ee-
=70	=70	=70	=70	=70	=70
1IV	A-:maj	109.71	.	voice	1A- 1cc 1ee-
=71	=71	=71	=71	=71	=71
1V7	B-:7	111.202	.	voice	1B- 1dd 1ff 1aa-
=72	=72	=72	=72	=72	=72
1V7	B-:7	112.694	.	voice	1B- 1dd 1ff 1aa-
=73	=73	=73	=73	=73	=73
*>B_verse	*>B_verse	*>B_verse	*>B_verse	*>B_verse	*>B_verse
1I	E-:maj	114.186	newline	voice	1E- 1g 1b-
=74	=74	=74	=74	=74	=74
1I	E-:maj	115.692	.	voice	1E- 1g 1b-
=75	=75	=75	=75	=75	=75
1vi	C:min	117.198	.	voice	1C 1e- 1g
=76	=76	=76	=76	=76	=76
1vi	C:min	118.704	.	voice	1C 1e- 1g
=77	=77	=77	=77	=77	=77
1IV	A-:maj	120.21	newline	voice	1A- 1cc 1ee-
=78	=78	=78	=78	=78	=78
1IV	A-:maj	121.709	.	voice	1A- 1cc 1ee-
=79	=79	=79	=79	=79	=79
1V	B-:maj	123.208	.	voice	1B- 1dd 1ff
=80	=80	=80	=80	=80	=80
1I	E-:maj	124.707	.	voice	1E- 1g 1b-
=81	=81	=81	=81	=81	=81
*>B_solo	*>B_solo	*>B_solo	*>B_solo	*>B_solo	*>B_solo
1I	E-:maj	126.206	newline	saxophone	1E- 1g 1b-
=82	=82	=82	=82	=82	=82
1I	E-:maj	127.725	.	saxophone	1E- 1g 1b-
=83	=83	=83	=83	=83	=83
1vi	C:min	129.244	.	saxophone	1C 1e- 1g
=84	=84	=84	=84	=84	=84
1vi	C:min	130.763	.	saxophone	1C 1e- 1g
=85	=85	=85	=85	=85	=85
1IV	A-:maj	132.282	newline	saxophone	1A- 1cc 1ee-
=86	=86	=86	=86	=86	=86
1IV	A-:maj	133.782	.	saxophone	1A- 1cc 1ee-
=87	=87	=87	=87	=87	=87
1V	B-:maj	135.282	.	saxophone	1B- 1dd 1ff
=88	=88	=88	=88	=88	=88
1V	B-:maj	136.782	.	saxophone	1B- 1dd 1ff
=89	=89	=89	=89	=89	=89
*>B_fadeout	*>B_fadeout	*>B_fadeout	*>B_fadeout	*>B_fadeout	*>B_fadeout
1I	E-:maj	138.282	newline	saxophone	1E- 1g 1b-
=90	=90	=90	=90	=90	=90
1I	E-:maj	139.782	.	saxophone	1E- 1g 1b-
=91	=91	=91	=91	=91	=91
1vi	C:min	141.282	.	saxophone	1C 1e- 1g
=92	=92	=92	=92	=92	=92
1vi	C:min	142.782	.	saxophone	1C 1e- 1g
=93	=93	=93	=93	=93	=93
1IV	A-:maj	144.282	newline	saxophone	1A- 1cc 1ee-
=94	=94	=94	=94	=94	=94
1IV	A-:maj	144.992	.	saxophone	1A- 1cc 1ee-
=95	=95	=95	=95	=95	=95
1V	B-:maj	145.702	.	saxophone	1B- 1dd 1ff
=96	=96	=96	=96	=96	=96
1V	B-:maj	146.412	.	saxophone	1B- 1dd 1ff
1r;	N	147.122	.	r	1r;
1r;	N	150.544	.	r	1r;
*-	*-	*-	*-	*-	*-
!!!OTL: Quarter To Three
!!!COC: Gary U.S. Bonds
!!!BillboardChartDate: 1961/05/29
!!!BillboardPeak: 1
!!!BillboardWeeksOnChart: 15
!!!SampleTargetRank: 65
!!!SampleActualRank: 65
!!!SampleID#: 0571
!!!RDF**harmony: **recip + pitch class of root + harmonic quality
!!!RDF**harte: Chris Harte's syntax, used by MIREX
!!!RDF**phrase: newline = linebreak in original McGill transcription
!!!RDF**timestamp: McGill audio timestamp in seconds
!!!RDF**leadinstrument: original McGill primary instrumentation annotation
!!!RDT: 2017/01/12/
!!!ENC: Nathaniel Condit-Schultz
!!!EST: Awating manual error checking and editing.
